src/assets/call-icon-white.svg

<svg width="17" height="16" viewBox="0 0 17 16" fill="none" xmlns="http://www.w3.org/2000/svg">
<path fill-rule="evenodd" clip-rule="evenodd" d="M12.5057 15.9977C11.2796 15.9553 7.80492 15.5034 4.16587 12.0799C0.527673 8.65562 0.0483124 5.38676 0.00233464 4.23224C-0.0657805 2.47283 1.36634 0.76389 3.02069 0.0964986C3.2199 0.0155519 3.43806 -0.015267 3.65376 0.00706618C3.86945 0.0293994 4.07527 0.104117 4.25102 0.223888C5.61332 1.15808 6.55331 2.57138 7.36047 3.68263C7.53807 3.92677 7.614 4.22387 7.57381 4.5173C7.53361 4.81074 7.38009 5.08 7.1425 5.27379L5.48135 6.43472C5.40109 6.48925 5.3446 6.56934 5.32236 6.66011C5.30013 6.75088 5.31366 6.84616 5.36044 6.92825C5.73678 7.57161 6.40601 8.52983 7.1723 9.2509C7.93945 9.97197 9.00545 10.6434 9.73684 11.0376C9.82854 11.086 9.93648 11.0995 10.0385 11.0754C10.1405 11.0513 10.2287 10.9913 10.2852 10.9078L11.3665 9.35906C11.5653 9.11057 11.8586 8.9441 12.1849 8.89452C12.5112 8.84493 12.8452 8.91608 13.1171 9.09307C14.315 9.87343 15.7131 10.7427 16.7365 11.9757C16.8741 12.1423 16.9617 12.3406 16.99 12.5499C17.0183 12.7592 16.9863 12.9718 16.8974 13.1655C16.1848 14.7302 14.3814 16.0626 12.5057 15.9977Z" fill="white"/>
</svg>

<svg xmlns="http://www.w3.org/2000/svg" width="17" height="16" fill="none">
  <path fill="#fff" fill-rule="evenodd" d="M12.506 15.998c-1.226-.043-4.701-.495-8.34-3.918C.528 8.656.048 5.387.002 4.232-.066 2.472 1.366.764 3.021.096a1.323 1.323 0 0 1 1.23.128c1.362.934 2.302 2.347 3.11 3.459.177.244.253.54.213.834-.04.294-.194.563-.431.757L5.48 6.434a.384.384 0 0 0-.159.226.365.365 0 0 0 .038.268c.377.644 1.046 1.602 1.812 2.323.767.721 1.833 1.392 2.565 1.787.092.048.2.062.302.037a.41.41 0 0 0 .246-.167l1.082-1.549c.198-.248.492-.415.818-.464.326-.05.66.021.932.198 1.198.78 2.596 1.65 3.62 2.883a1.115 1.115 0 0 1 .16 1.19c-.712 1.564-2.516 2.897-4.391 2.832Z" clip-rule="evenodd"/>
</svg>
